!!!!SEGMENT: pl-cz--ii-15--010_szlagorski-walenty--gallop.krn
!!!cenid: 18xx:1160
!!!COM: Szlagórski, Walenty
!!!COM-rismID: pe30111815
!!!CDT: 1801-1863/07/16
!!!CNT: Polish
!!!OTL: Gallop
!!!PDT:
!!!AGN: Secular; Galop
!!!SMS-siglum: PL-CZ
!!!SMS-shelfmark: II-15
!!!SMS-shelfwork: 010 W
!!!SMS-variant:
!!!SMS-altvar:
!!!NIFC-rismSourceID: 300001531
!!!NIFC-islandoraID: pl-cz:32533
!!!URL-pdf-islandora: https://repozytorium.nifc.pl/islandora/object/pl-cz%3A32533/datastream/PDF/view
!!!URL-scan:
!!!ONB-nifc: UWAGA: części: 1. Mazur (Morawski), 2. Mazur (Szlagórski), 3. Walc 1, 4. Walc 2, 5. Walc 3, 6. Walc 4, 7. Walc 5, 8. Mazur (Studziński), 9. Kotylion (Szlagórski), 10. Gallop (Szlagórski), 11. Mazur (Smacierzyński). UWAGA: dalsza część partii Basso z tyłu okładki
!!!AIN: 1 bass 2 clars 1 clrno 2 cor 2 flt 2 violn
!!!key: D
**kern	**kern	**kern	**kern	**kern	**kern	**kern	**kern	**kern	**kern
*part10	*part9	*part8	*part7	*part6	*part5	*part4	*part3	*part2	*part1
*group3	*group3	*group3	*group2	*group2	*group2	*group1	*group1	*group1	*group1
*staff10	*staff9	*staff8	*staff7	*staff6	*staff5	*staff4	*staff3	*staff2	*staff1
*I"Baſso	*I"Violino 2do	*I"Violino 1mo	*I"Clarino in G.	*I"[Corno 2do]	*I"Corno 1mo in D.	*I"Clarnetto 2do in C	*I"Clarnetto 1mo in C.	*I"[Flauto Secondo]	*I"Flauto Primo
*I'b	*I'vl 2	*I'vl 1	*I'clno in G	*I'cor 2	*I'cor 1 in D	*I'cl 2 in A	*I'cl 1 in C	*I'fl 2	*I'fl 1
*Ibass	*Ivioln	*Ivioln	*Iclrno	*Icor	*Icor	*Iclars	*Iclars	*Iflt	*Iflt
*ICstr	*ICstr	*ICstr	*ICbras	*ICbras	*ICbras	*ICww	*ICww	*ICww	*ICww
*clefF4	*clefG2	*clefG2	*clefG2	*clefG2	*clefG2	*clefG2	*clefG2	*clefG2	*clefG2
*	*	*	*ITrd3c5	*ITrd-1c-2	*ITrd-1c-2	*ITrd2c3	*	*	*
*kcancel	*kcancel	*kcancel	*kcancel	*kcancel	*kcancel	*kcancel	*	*kcancel	*kcancel
*k[f#c#]	*k[f#c#]	*k[f#c#]	*k[f#]	*k[f#c#]	*k[f#c#]	*k[f#c#g#]	*k[f#c#]	*k[f#c#]	*k[f#c#]
*D:	*D:	*D:	*D:	*D:	*D:	*D:	*D:	*D:	*D:
*M2/4	*M2/4	*M2/4	*M2/4	*M2/4	*M2/4	*M2/4	*M2/4	*M2/4	*M2/4
*>[A,A,B,B,C,C,A]	*>[A,A,B,B,C,C,A]	*>[A,A,B,B,C,C,A]	*>[A,A,B,B,C,C,A]	*>[A,A,B,B,C,C,A]	*>[A,A,B,B,C,C,A]	*>[A,A,B,B,C,C,A]	*>[A,A,B,B,C,C,A]	*>[A,A,B,B,C,C,A]	*>[A,A,B,B,C,C,A]
=1	=1	=1	=1	=1	=1	=1	=1	=1	=1
*>A	*>A	*>A	*>A	*>A	*>A	*>A	*>A	*>A	*>A
!	!	!	!	!	!	!LO:TX:t=in A.	!	!	!
!	!	!	!	!	!	!LO:TX:a:t=4	!LO:TX:a:t=4	!	!LO:TX:a:t=2
!	!	!	!LO:TX:t=in G.	!LO:TX:t=P:problem:brak partii w źródle	!LO:TX:t=in D	!LO:N:vis=00	!LO:N:vis=00	!LO:TX:t=P:problem:brak partii w źródle	!LO:N:vis=0
8D\	8r	8a\L	8r	2ryy	8r	0r	0r	2ryy	1r
*	*tremolo	*	*	*	*	*	*	*	*
*	*	*	*	*	*tremolo	*	*	*	*
!	!	!LO:SIC:v:s=8dd\	!	!	!	!	!	!	!
8r	8f# 8A/L	8cc#\	8a\	.	8dd\L	.	.	.	.
8D\	8f# 8A/	8dd\	8r	.	8dd\	.	.	.	.
8r	8f# 8A/J	8ff#\J	8a\	.	8dd\J	.	.	.	.
=2	=2	=2	=2	=2	=2	=2	=2	=2	=2
8F#\	8r	8bb\L	8r	2ryy	8r	.	.	2ryy	.
8r	8a 8d/L	8aa\J	8d/	.	8dd\L	.	.	.	.
8F#\	8a 8d/	8dd\L	8r	.	8dd\	.	.	.	.
8r	8a 8d/J	16ee\L	8d/	.	8dd\J	.	.	.	.
.	.	16ff#\JJ	.	.	.	.	.	.	.
*	*Xtremolo	*	*	*	*Xtremolo	*	*	*	*
=3	=3	=3	=3	=3	=3	=3	=3	=3	=3
!	!	!	!LO:TX:a:t=1	!	!	!	!	!	!
8E\	8r	8gg\L	2r	2ryy	8r	.	.	2ryy	8ggg\L
8r	8g 8B/	8b\J	.	.	8gg\	.	.	.	8bb\
8G\	8r	8ff#\L	.	.	8r	.	.	.	8fff#\
8r	8e 8B/	8ee\J	.	.	8ee\	.	.	.	8eee\J
=4	=4	=4	=4	=4	=4	=4	=4	=4	=4
8A\	8r	8ff#\L	8r	2ryy	8r	.	.	2ryy	8fff#\L
*	*tremolo	*	*	*	*tremolo	*	*	*	*
8r	8g 8A/L	8ee\J	16a\LL	.	8ee\L	.	.	.	8eee\
.	.	.	16a\JJ	.	.	.	.	.	.
8AA/	8g 8A/	4a/	8a\L	.	8ee\	.	.	.	8ccc#\
8r	8g 8A/J	.	8a\J	.	8ee\J	.	.	.	8aa\J
=5	=5	=5	=5	=5	=5	=5	=5	=5	=5
!	!	!	!	!	!	!	!	!	!LO:TX:a:t=2
!	!	!	!	!	!	!	!	!	!LO:N:vis=0
8C#/	8r	8a\L	8r	2ryy	8r	8r	8a\L	2ryy	1r
!	!	!LO:SIC:v:s=8dd\	!	!	!	!	!LO:SIC:v:s=8dd\	!	!
8r	8f# 8A/L	8cc#\	16a\LL	.	8dd\L	8f#/	8cc#\	.	.
.	.	.	16a\JJ	.	.	.	.	.	.
8D/	8f# 8A/	8dd\	8a\L	.	8dd\	8r	8dd\	.	.
8r	8f# 8A/J	8ff#\J	8a\J	.	8dd\J	8f#/	8ff#\J	.	.
=6	=6	=6	=6	=6	=6	=6	=6	=6	=6
8F#\	8r	8bb\L	8r	2ryy	8r	8r	8bb\L	2ryy	.
*	*	*	*tremolo	*	*	*	*	*	*
8r	8a 8d/L	8aa\J	8d/L	.	8dd\L	8a\	8aa\J	.	.
8F#\	8a 8d/	8ddd\L	8d/	.	8dd\	8r	8dd\L	.	.
8r	8a 8d/J	16ff#\L	8d/J	.	8dd\J	8a\	8ff#\J	.	.
.	.	16ff#\JJ	.	.	.	.	.	.	.
*	*Xtremolo	*	*Xtremolo	*	*Xtremolo	*	*	*	*
!	!	!LO:LB:g=original	!	!	!	!	!	!	!
=7	=7	=7	=7	=7	=7	=7	=7	=7	=7
!LO:TX:t=P:problem:niekompletny takt	!	!	!	!	!	!	!	!	!
8G\	8r	8bb\L	8r	2ryy	8r	8r	8bb\L	2ryy	8bb\L
8r	8e 8B/	16ee\L	8a\	.	8ee\	8b\	16ee\L	.	16eee\L
.	.	16ee\JJ	.	.	.	.	16ee\JJ	.	16eee\JJ
8ryy	8r	8aa\L	4a\	.	4ee\	8r	8aa\L	.	8aa\L
!	!	!	!	!	!	!LO:SIC:v:s=8a\	!	!	!
8r	8g 8A/	16cc#\L	.	.	.	8g#\	16cc#\L	.	16ccc#\L
.	.	16cc#\JJ	.	.	.	.	16cc#\JJ	.	16ccc#\JJ
!LO:LB:g=original	!	!	!	!	!LO:LB:g=original	!	!	!	!LO:LB:g=original
=8	=8	=8	=8	=8	=8	=8	=8	=8	=8
*	*tremolo	*	*	*	*	*	*	*	*
!LO:TX:a:t=P:problem:mixed beam	!	!	!	!	!	!	!	!	!
8D/L	8f# 8A/L	8dd\L	8d/L	2ryy	8ff#\L	8f#\L	8dd\L	2ryy	8ddd\L
8d\J	8f# 8A/	8ff#\J	8d/J	.	8dd\J	8a\J	8ff#\J	.	8fff#\J
8D/	8f# 8A/J	4dd\	4d/	.	8dd\	8f#\	4dd\	.	4ddd\
*	*Xtremolo	*	*	*	*	*	*	*	*
8r	8r	.	.	.	8r	8r	.	.	.
=9:|!|:	=9:|!|:	=9:|!|:	=9:|!|:	=9:|!|:	=9:|!|:	=9:|!|:	=9:|!|:	=9:|!|:	=9:|!|:
*>B	*>B	*>B	*>B	*>B	*>B	*>B	*>B	*>B	*>B
!	!	!	!LO:TX:a:t=8	!	!LO:TX:a:t=2	!LO:TX:a:t=12	!	!	!
!	!	!	!LO:N:vis=00	!	!LO:N:vis=0	!	!	!	!
8A\	8r	8r	0r	2ryy	1r	2r	8ee\L	2ryy	8eee\L
8r	8c#/L	8aL 8e/	.	.	.	.	(16ff#\L	.	16fff#\L
.	.	.	.	.	.	.	16ee\JJ)	.	16eee\JJ
8A\	8c#/	8r	.	.	.	.	8cc#'\L	.	8ccc#\L
8r	8eJ 8c#/	8aJ 8e/	.	.	.	.	8ee'\J	.	8eee\J
!	!LO:LB:g=original	!	!	!	!	!	!	!	!
=10	=10	=10	=10	=10	=10	=10	=10	=10	=10
8D\	8r	8r	.	2ryy	.	2r	8ff#\L	2ryy	8fff#\L
8r	8d/L	8aL 8f#/	.	.	.	.	8aa\J	.	8aaa\J
!	!LO:SIC:v:s=8e/	!	!	!	!	!	!	!	!
8A\	8d/	8r	.	.	.	.	4ee\	.	4eee\
!	!	!LO:SIC:v:n=2:s=8e/	!	!	!	!	!	!	!
8r	8c#/J	8aJ 8f#/	.	.	.	.	.	.	.
!	!	!	!	!	!	!	!LO:LB:g=original	!	!
=11	=11	=11	=11	=11	=11	=11	=11	=11	=11
8D\	8r	8r	.	2ryy	8ff#\	2r	8ff#\L	2ryy	8fff#\L
!	!	!LO:SIC:v:n=2:s=8f#/	!	!	!	!	!	!	!
8r	8d/L	8aL 8e/	.	.	8r	.	(16gg#X\L	.	16ggg#X\L
.	.	.	.	.	.	.	16ff#\JJ)	.	16fff#\JJ
!	!LO:SIC:v:s=8e/	!	!	!	!	!	!	!	!
8A\	8d/	8r	.	.	8ee\	.	8ee'\L	.	8eee\L
8r	8eJ 8c#/	8aJ 8e/	.	.	8r	.	8cc#'\J	.	8ccc#\J
=12	=12	=12	=12	=12	=12	=12	=12	=12	=12
8E\L	8dL 8B/	8g#X/L	.	2ryy	8ee\L	2r	8ee\L	2ryy	8eee\L
8E\J	8dJ 8B/	8g#/J	.	.	8ee\J	.	(16b\L	.	16bb\L
.	.	.	.	.	.	.	16cc#\JJ)	.	16ccc#\JJ
!	!LO:N:vis=8	!	!	!	!	!	!	!	!
4A\	4c#/	4a 4e/	.	.	4ee\	.	8a'\L	.	8aa\L
.	.	.	.	.	.	.	8cc#'\J	.	8ccc#\J
=13	=13	=13	=13	=13	=13	=13	=13	=13	=13
!	!	!	!	!	!LO:TX:a:t=2	!	!	!	!
!	!	!	!LO:N:vis=00	!	!LO:N:vis=0	!	!	!	!
8A\	8r	8r	0r	2ryy	1r	2r	8ee'\L	2ryy	8eee\L
*	*tremolo	*	*	*	*	*	*	*	*
8r	8c#/L	8aL 8e/	.	.	.	.	(16ff#\L	.	16fff#\L
.	.	.	.	.	.	.	16ee\JJ)	.	16eee\JJ
8A\	8c#/	8r	.	.	.	.	8cc#\L	.	8ccc#\L
8r	8c#/J	8aJ 8e/	.	.	.	.	8ee\J	.	8eee\J
*	*Xtremolo	*	*	*	*	*	*	*	*
=14	=14	=14	=14	=14	=14	=14	=14	=14	=14
8D\	8r	8r	.	2ryy	.	2r	8ff#\L	2ryy	8fff#\L
8r	8d/L	8aL 8f#/	.	.	.	.	8aa\J	.	8aaa\J
!	!LO:SIC:v:s=8e/	!	!	!	!	!	!	!	!
8A\	8d/	8r	.	.	.	.	4ee\	.	4eee\
8r	8c#/J	8aJ 8e/	.	.	.	.	.	.	.
!	!	!LO:LB:g=original	!	!	!	!	!	!	!LO:LB:g=original
=15	=15	=15	=15	=15	=15	=15	=15	=15	=15
8D\	8r	8r	.	2ryy	8ff#\	2r	8ff#\L	2ryy	8fff#\L
8r	8d/L	8aL 8f#/	.	.	8r	.	(16gg#X\L	.	16ggg#X\L
.	.	.	.	.	.	.	16ff#\JJ)	.	16fff#\JJ
!	!LO:SIC:v:s=8e/	!	!	!	!	!	!	!	!
8A\	8d/	8r	.	.	8ee\	.	8ee\L	.	8eee\L
8r	8c#/J	8aJ 8e/	.	.	8r	.	8cc#\J	.	8ccc#\J
=16	=16	=16	=16	=16	=16	=16	=16	=16	=16
!LO:TX:t=P:problem:niekompletny takt	!	!	!	!	!	!	!	!	!
8E\	8dL 8B/	8g#X/L	.	2ryy	8ee\L	2r	8ee'\L	2ryy	8eee\L
8ryy	8dJ 8B/	8g#/J	.	.	8ee\J	.	(16b\L	.	16bb\L
.	.	.	.	.	.	.	16cc#\JJ)	.	16ccc#\JJ
4ryy	8c#/	8a 8e/	.	.	4ee\	.	4a\	.	4aa\
.	8r	8r	.	.	.	.	.	.	.
!LO:LB:g=original	!	!	!LO:LB:g=original	!	!	!	!	!	!
=17	=17	=17	=17	=17	=17	=17	=17	=17	=17
!	!	!	!	!	!	!	!LO:TX:a:t=4	!	!LO:TX:a:t=2
!	!	!	!	!	!	!	!LO:N:vis=00	!	!LO:N:vis=0
8D\	8r	8a\L	8r	2ryy	8r	2r	0r	2ryy	1r
*	*tremolo	*	*	*	*tremolo	*	*	*	*
!	!	!LO:SIC:v:s=8dd\	!	!	!	!	!	!	!
8r	8f# 8A/L	8cc#\	8a\	.	8dd\L	.	.	.	.
8D\	8f# 8A/	8dd\	8r	.	8dd\	.	.	.	.
8r	8f# 8A/J	8ff#\J	8a\	.	8dd\J	.	.	.	.
!	!LO:LB:g=original	!	!	!	!	!	!	!	!
=18	=18	=18	=18	=18	=18	=18	=18	=18	=18
8F#\	8r	8bb\L	8r	2ryy	8r	2r	.	2ryy	.
8r	8a 8d/L	8aa\J	8d/	.	8dd\L	.	.	.	.
8F#\	8a 8d/	8dd\L	8r	.	8dd\	.	.	.	.
8r	8a 8d/J	16ee\L	8d/	.	8dd\J	.	.	.	.
.	.	16ff#\JJ	.	.	.	.	.	.	.
*	*Xtremolo	*	*	*	*Xtremolo	*	*	*	*
!	!	!	!	!	!LO:LB:g=original	!	!	!	!
=19	=19	=19	=19	=19	=19	=19	=19	=19	=19
!	!	!	!LO:TX:a:t=1	!	!	!	!	!	!
8E\	8r	8gg\L	2r	2ryy	8r	2r	.	2ryy	8ggg\L
8r	8g 8B/	8b\	.	.	8gg\	.	.	.	8bb\
!	!	!LO:SIC:v:s=8ff#\	!	!	!	!	!	!	!
8G\	8r	8ee\	.	.	8r	.	.	.	8fff#\
!	!	!LO:SIC:v:s=8ee\J	!	!	!	!	!	!	!
8r	8e 8B/	8dd\J	.	.	8ee\	.	.	.	8eee\J
=20	=20	=20	=20	=20	=20	=20	=20	=20	=20
8A\	8r	8ff#\L	8r	2ryy	8r	2r	.	2ryy	8fff#\L
*	*tremolo	*	*	*	*tremolo	*	*	*	*
8r	8g 8A/L	8ee\J	16a\LL	.	8ee\L	.	.	.	8eee\
.	.	.	16a\JJ	.	.	.	.	.	.
8AA/	8g 8A/	4a/	8a\L	.	8ee\	.	.	.	8ccc#\
8r	8g 8A/J	.	8a\J	.	8ee\J	.	.	.	8aa\J
=21	=21	=21	=21	=21	=21	=21	=21	=21	=21
!	!	!	!	!	!	!	!	!	!LO:TX:a:t=2
!	!	!	!	!	!	!	!	!	!LO:N:vis=0
8D\	8r	8a\L	8r	2ryy	8r	8r	8a\L	2ryy	1r
!	!	!LO:SIC:v:s=8dd\	!	!	!	!	!LO:SIC:v:s=8dd\	!	!
8r	8f# 8A/L	8cc#\	16a\LL	.	8dd\L	8f#/	8cc#\	.	.
.	.	.	16a\JJ	.	.	.	.	.	.
8D\	8f# 8A/	8dd\	8a\L	.	8dd\	8r	8dd\	.	.
8r	8f# 8A/J	8ff#\J	8a\J	.	8dd\J	8f#/	8ff#\J	.	.
!	!	!LO:LB:g=original	!	!	!	!	!	!	!
=22	=22	=22	=22	=22	=22	=22	=22	=22	=22
8F#\	8r	8bb\L	8r	2ryy	8r	8r	8bb\L	2ryy	.
*	*	*	*tremolo	*	*	*	*	*	*
8r	8a 8d/L	8aa\J	8d/L	.	8dd\L	8a\	8aa\J	.	.
8F#\	8a 8d/	8ddd\L	8d/	.	8dd\	8r	8dd\L	.	.
8r	8a 8d/J	16ff#\L	8d/J	.	8dd\J	8a\	8ff#\J	.	.
.	.	16ff#\JJ	.	.	.	.	.	.	.
*	*Xtremolo	*	*Xtremolo	*	*Xtremolo	*	*	*	*
!	!	!	!	!	!	!	!LO:LB:g=original	!	!
=23	=23	=23	=23	=23	=23	=23	=23	=23	=23
8G\	8r	8bb\L	8r	2ryy	8r	8r	8bb\L	2ryy	8bb\L
8r	8eL 8B/	16ee\L	8a\	.	8ee\	8b\	16ee\L	.	16eee\L
.	.	16ee\JJ	.	.	.	.	16ee\JJ	.	16eee\JJ
!	!LO:SIC:v:n=2:s=8A/	!	!	!	!	!	!	!	!
8A\	8e 8B/	8aa\L	4a\	.	4ee\	8r	8aa\L	.	8aa\L
!	!	!	!	!	!	!LO:SIC:v:s=8a\	!	!	!
8r	8gJ 8A/	16cc#\L	.	.	.	8g#\	16cc#\L	.	16ccc#\L
.	.	16cc#\JJ	.	.	.	.	16cc#\JJ	.	16ccc#\JJ
!	!	!	!	!	!	!LO:LB:g=original	!	!	!
=24	=24	=24	=24	=24	=24	=24	=24	=24	=24
*	*tremolo	*	*	*	*	*	*	*	*
!LO:TX:a:t=P:problem:mixed beam	!	!	!	!	!	!	!	!	!
8D/L	8f# 8A/L	8dd\L	8d/L	2ryy	8ff#\L	8f#\L	8dd\L	2ryy	8ddd\L
8d\J	8f# 8A/	8ff#\J	8d/J	.	8dd\J	8a\J	8ff#\	.	8fff#\J
8D/	8f# 8A/J	4dd\	4d/	.	4dd\	8f#/	8dd\J	.	4ddd\
8ryy	8r	.	.	.	.	8r	8r	.	.
=25:|!|:	=25:|!|:	=25:|!|:	=25:|!|:	=25:|!|:	=25:|!|:	=25:|!|:	=25:|!|:	=25:|!|:	=25:|!|:
*>C	*>C	*>C	*>C	*>C	*>C	*>C	*>C	*>C	*>C
*k[f#]	*	*k[f#cn]	*k[f#]	*	*k[f#c#]	*k[f#]	*k[f#]	*	*k[f#]
*	*	*	*	*	*	*	*M2/4	*	*
!LO:TX:t=P:problem:niekompletny takt	!	!	!	!	!	!	!LO:TX:a:t=Trio	!	!
8G\	8r	8r	8D/L	2ryy	4gg\	4b\	4dd\	2ryy	4gg\
8ryy	8d 8B/L	8g/L	16D/L	.	.	.	.	.	.
.	.	.	16D/JJ	.	.	.	.	.	.
4ryy	8d 8B/	8r	8G/L	.	8gg\L	8b\L	8dd\L	.	8gg\L
.	8d 8B/J	8g/J	8B/J	.	8gg\J	8b\J	8dd\J	.	8gg\J
!LO:LB:g=original	!	!	!LO:LB:g=original	!	!	!	!	!	!LO:LB:g=original
=26	=26	=26	=26	=26	=26	=26	=26	=26	=26
8G\	8r	8r	8D/L	2ryy	4gg\	4b\	4dd\	2ryy	4gg\
8r	8d 8B/L	8g/L	16D/L	.	.	.	.	.	.
.	.	.	16D/JJ	.	.	.	.	.	.
8G\	8d 8B/	8r	8G/L	.	8gg\L	8b\L	8dd\L	.	8gg\L
8r	8d 8B/J	8g/J	8B/J	.	8gg\J	8b\J	8dd\J	.	8gg\J
=27	=27	=27	=27	=27	=27	=27	=27	=27	=27
*	*	*	*	*	*2\right	*2\right	*	*	*
*	*	*	*	*	*tremolo	*tremolo	*	*	*
8D\	8r	8r	8A/L	2ryy	8aa\L	8cc\L	8ff#\L	2ryy	8aa\L
!	!LO:SIC:v:n=2:s=8cn/L	!	!	!	!	!	!	!	!
8r	8d 8c#/L	8f#/L	8e/	.	8aa\	8cc\	8ff#\	.	8eee\
!	!LO:SIC:v:n=2:s=8cn/	!	!	!	!	!	!	!	!
8D\	8d 8c#/	8f#/	8d/	.	8aa\	8cc\	8ff#\	.	8ddd\
!	!LO:SIC:v:n=2:s=8cn/J	!	!	!	!	!	!	!	!
8r	8d 8c#/J	8f#/J	8c/J	.	8aa\J	8cc\J	8ff#\J	.	8ccc\J
*	*	*	*	*	*Xtremolo	*Xtremolo	*	*	*
!	!	!	!	!	!LO:LB:g=original	!	!	!	!
=28	=28	=28	=28	=28	=28	=28	=28	=28	=28
8G\L	8r	8r	8B/L	2ryy	8gg\L	8b\L	8gg\L	2ryy	8bb\L
8G\J	8d 8B/L	8g/L	8d/J	.	8gg\J	8b\J	8gg\J	.	8ddd\J
8G\	8d 8B/	8g/	4g\	.	4gg\	4b\	4gg\	.	4ggg\
8r	8d 8B/J	8g/J	.	.	.	.	.	.	.
!	!LO:LB:g=original	!LO:LB:g=original	!	!	!	!	!	!	!
=29	=29	=29	=29	=29	=29	=29	=29	=29	=29
8G\	8r	8r	8D/L	2ryy	4gg\	4b\	4dd\	2ryy	4gg\
8r	8d 8B/L	8g/L	16D/L	.	.	.	.	.	.
.	.	.	16D/JJ	.	.	.	.	.	.
8G\	8d 8B/	8r	8G/L	.	8gg\L	8b\L	8dd\L	.	8gg\L
8r	8d 8B/J	8g/J	8B/J	.	8gg\J	8b\J	8dd\J	.	8gg\J
=30	=30	=30	=30	=30	=30	=30	=30	=30	=30
8G\	8r	8r	8D/L	2ryy	4gg\	4b\	4dd\	2ryy	4gg\
8r	8d 8B/L	8g/L	16D/L	.	.	.	.	.	.
.	.	.	16D/JJ	.	.	.	.	.	.
8G\	8d 8B/	8r	8G/L	.	8gg\L	8b\L	8dd\L	.	8gg\L
8r	8d 8B/J	8g/J	8B/J	.	8gg\J	8b\J	8dd\J	.	8gg\J
=31	=31	=31	=31	=31	=31	=31	=31	=31	=31
*	*	*	*	*	*tremolo	*tremolo	*	*	*
8D\	8r	8r	8A/L	2ryy	8aa\L	8cc\L	8ff#\L	2ryy	8aa\L
!	!LO:SIC:v:n=2:s=8cn/L	!	!	!	!	!	!	!	!
8r	8d 8c#/L	8f#/L	8e/	.	8aa\	8cc\	8ff#\	.	8eee\
!	!LO:SIC:v:n=2:s=8cn/	!	!	!	!	!	!	!	!
8D\	8d 8c#/	8f#/	8d/	.	8aa\	8cc\	8ff#\	.	8ddd\
!	!LO:SIC:v:n=2:s=8cn/J	!	!	!	!	!	!	!	!
8r	8d 8c#/J	8f#/J	8D/J	.	8aa\J	8cc\J	8ff#\J	.	8ff#\J
*	*Xtremolo	*	*	*	*Xtremolo	*Xtremolo	*	*	*
=32	=32	=32	=32	=32	=32	=32	=32	=32	=32
8G\L	8dL 8B/	8g/L	8G/L	2ryy	8gg\L	8b\L	8gg\L	2ryy	8gg\L
8G\J	8dJ 8B/	8g/J	8B/J	.	8gg\J	8b\J	8gg\J	.	8bb\J
4G\	4d 4B/	4g/	4G/	.	4gg\	4b\	4gg\	.	4gg\
!	!	!	!LO:TX:a:t=Galop DaCapo	!	!LO:TX:a:t=Gallop Da Copo	!	!LO:TX:a:t=D.Capo\nGalop	!	!
=:|!	=:|!	=:|!	=:|!	=:|!	=:|!	=:|!	=:|!	=:|!	=:|!
*-	*-	*-	*-	*-	*-	*-	*-	*-	*-
!!!system-decoration: [(g1)][(g2)][(g3)]
!!!ENC: Katarzyna Serwa
!!!END: 2021-10-29
!!!ENC: Berenika Jozajtis
!!!END: 2020-11-07
!!!YEC: Copyright 2022 Narodowy Instytut Fryderyka Chopina (https://polishscores.org)
!!!YEM: Licence CC BY 4.0 (https://creativecommons.org/licenses/by/4.0)
